X:1
T:Ellingham (Godfrey), 77.77
T:Ellingham (Godfrey), 77.77
T:Nathaniel Stedman Godfrey, 1881
T:Public Domain Courtesy of the Cyber Hymnal™
C:Nathaniel Stedman Godfrey, 1881
Z:Public Domain
Z:Courtesy of the Cyber Hymnal™
%%score 1 ( 2 3 )
L:1/8
Q:1/4=108
M:4/4
K:Ab
V:1 treble 
V:2 bass 
V:3 bass 
V:1
 [Ec]3 [CA] [Fd]2 [Ec]2 | [Ec]2 [DB]2 [CA]4 | [DB]3 [DF] [=DB]2 [DA]2 | [EG]2 [=DA]2 [EB]4 | %4
 [Ec]3 [CA] [Dd]2 [Ec]2 | [Fc]2 [GB]2 [Ee]4 | [Gd]2 [Ac]2 [FB]2 [=DA]2 | [EA]2 [EG]2 [EA]4 |] %8
V:2
 A,3 A, A,2 A,2 | [E,A,]2 [E,G,]2 A,4 | [D,F,]3 [D,F,] [B,,F,]2 [B,,B,]2 | [E,B,]2 [F,B,]2 B,4 | %4
 A,3 [_G,A,] [F,A,]2 [E,A,]2 | [=D,A,]2 [_D,B,]2 [C,A,]4 | [B,,E]2 [A,,E]2 [D,D]2 [F,A,]2 | %7
 [E,B,]2 [E,B,]2 [A,,C]4 |] %8
V:3
 A,3 A, A,2 A,2 | x4 F,2 E,2 | x8 | x4 (G,2 E,2) | A,3 x5 | x8 | x8 | x8 |] %8

